icons/svg/shields/h_blue_square_night_shield.svg

<?xml version="1.0" encoding="UTF-8" standalone="no"?>
<!-- Generator: Adobe Illustrator 16.0.4, SVG Export Plug-In . SVG Version: 6.00 Build 0)  -->

<svg
   xmlns:dc="http://purl.org/dc/elements/1.1/"
   xmlns:cc="http://creativecommons.org/ns#"
   xmlns:rdf="http://www.w3.org/1999/02/22-rdf-syntax-ns#"
   xmlns:svg="http://www.w3.org/2000/svg"
   xmlns="http://www.w3.org/2000/svg"
   xmlns:sodipodi="http://sodipodi.sourceforge.net/DTD/sodipodi-0.dtd"
   xmlns:inkscape="http://www.inkscape.org/namespaces/inkscape"
   version="1.1"
   id="Слой_1"
   x="0px"
   y="0px"
   width="18"
   height="18"
   viewBox="0 0 17.999999 18"
   enable-background="new 0 0 17.113 17.143"
   xml:space="preserve"
   inkscape:version="0.91 r13725"
   sodipodi:docname="h_blue_square_night_shield.svg"><metadata
     id="metadata13"><rdf:RDF><cc:Work
         rdf:about=""><dc:format>image/svg+xml</dc:format><dc:type
           rdf:resource="http://purl.org/dc/dcmitype/StillImage" /><dc:title /></cc:Work></rdf:RDF></metadata><defs
     id="defs11" /><sodipodi:namedview
     pagecolor="#ffffff"
     bordercolor="#666666"
     borderopacity="1"
     objecttolerance="10"
     gridtolerance="10"
     guidetolerance="10"
     inkscape:pageopacity="0"
     inkscape:pageshadow="2"
     inkscape:window-width="1920"
     inkscape:window-height="1006"
     id="namedview9"
     showgrid="true"
     inkscape:zoom="32"
     inkscape:cx="12.801123"
     inkscape:cy="9.5582714"
     inkscape:window-x="1920"
     inkscape:window-y="0"
     inkscape:window-maximized="1"
     inkscape:current-layer="Слой_1"
     fit-margin-top="0"
     fit-margin-left="0"
     fit-margin-right="0"
     fit-margin-bottom="0"
     inkscape:showpageshadow="false"
     inkscape:snap-object-midpoints="true"
     inkscape:snap-center="true"
     inkscape:snap-page="true"><inkscape:grid
       type="xygrid"
       id="grid2991"
       empspacing="5"
       visible="true"
       enabled="true"
       snapvisiblegridlinesonly="true"
       originx="-1.3381215e-05px"
       originy="0.0064353387px" /></sodipodi:namedview><g
     id="g2117"
     transform="matrix(0.08631273,0,0,0.08631273,32.3743,-3.7592673)"
     style="fill:#000000"><g
       id="g2119"
       style="fill:#000000"><g
         id="g2121"
         style="fill:#000000"><path
           inkscape:connector-curvature="0"
           id="path2125"
           style="fill:#000000;stroke:none"
           d="" /></g><g
         id="g2127"
         style="fill:#000000"><path
           inkscape:connector-curvature="0"
           id="path2131"
           style="fill:#000000;stroke:none"
           d="" /></g></g></g><g
     transform="matrix(0.06635536,0,0,0.06635536,28.23946,-4.5870373)"
     id="g1327-1"
     style="fill:#ffffff;stroke:none" /><g
     transform="matrix(0.02652639,0,0,0.02654767,0.34151731,2.2481377)"
     id="g1327-2"
     style="color:#000000;clip-rule:nonzero;display:inline;overflow:visible;visibility:visible;opacity:0.84899998;isolation:auto;mix-blend-mode:normal;color-interpolation:sRGB;color-interpolation-filters:linearRGB;solid-color:#000000;solid-opacity:1;fill:#0086c7;fill-opacity:1;fill-rule:nonzero;stroke:none;stroke-width:1.23185253;stroke-linecap:butt;stroke-linejoin:miter;stroke-miterlimit:4;stroke-dasharray:none;stroke-dashoffset:0;stroke-opacity:1;marker:none;color-rendering:auto;image-rendering:auto;shape-rendering:auto;text-rendering:auto;enable-background:accumulate"><path
       inkscape:connector-curvature="0"
       d="M 209.46697,-65.053751 C 97.426676,-61.596302 7.2359269,14.756444 7.3032039,126.51058 L 7.4487175,368.22412 C 7.5817173,589.15105 210.10771,573.52713 215.15011,573.52713 l 243.49117,0 c 110.72206,0 187.24695,-62.49207 186.87425,-207.24463 L 644.89817,126.51058 C 644.54335,-11.297038 539.18475,-59.700408 442.17835,-64.984789 c 0,0 -232.87454,-0.222123 -232.71138,-0.06896 z"
       style="color:#000000;clip-rule:nonzero;display:inline;overflow:visible;visibility:visible;isolation:auto;mix-blend-mode:normal;color-interpolation:sRGB;color-interpolation-filters:linearRGB;solid-color:#000000;solid-opacity:1;fill:#0086c7;fill-opacity:1;fill-rule:nonzero;stroke:none;stroke-width:1.23185253;stroke-linecap:butt;stroke-linejoin:miter;stroke-miterlimit:4;stroke-dasharray:none;stroke-dashoffset:0;stroke-opacity:1;marker:none;color-rendering:auto;image-rendering:auto;shape-rendering:auto;text-rendering:auto;enable-background:accumulate"
       id="path1329-2"
       sodipodi:nodetypes="csssssssc" /></g><path
     style="fill:#5fb7ed;fill-opacity:1;stroke:none;color:#000000;fill-rule:nonzero;marker:none;visibility:visible;display:inline;overflow:visible;enable-background:accumulate;opacity:0.94899998;clip-rule:nonzero;isolation:auto;mix-blend-mode:normal;color-interpolation:sRGB;color-interpolation-filters:linearRGB;solid-color:#000000;solid-opacity:1;stroke-width:0.03244878;stroke-linecap:butt;stroke-linejoin:miter;stroke-miterlimit:4;stroke-dasharray:none;stroke-dashoffset:0;stroke-opacity:1;filter-blend-mode:normal;filter-gaussianBlur-deviation:0;color-rendering:auto;image-rendering:auto;shape-rendering:auto;text-rendering:auto"
     d="M 5.6874676,-0.03987585 C 2.5241856,0.05781815 -0.00193144,2.2086406 -3.2436009e-5,5.3663741 l 0,6.8437499 C 0.00376756,18.452652 5.7013536,18.022624 5.8437176,18.022624 l 6.8750004,0 c 3.126064,0 5.291773,-1.78486 5.28125,-5.875 l 0,-6.7812499 c -0.01001,-3.8939028 -2.979926,-5.25693405 -5.71875,-5.40624995 0,0 -6.5983564,-0.00433 -6.5937504,0 z m 0.21875,0.625 c -0.0043,-0.00403 6.1562504,0 6.1562504,0 2.554265,0.1392541 5.303183,1.39974215 5.3125,5.03124995 l 0.03125,6.3124999 c 0.0098,3.814521 -2.02209,5.46875 -4.9375,5.46875 l -6.4062504,0 c -0.132771,0 -5.46525004,0.415619 -5.46875004,-5.40625 l 0,-6.3749999 C 0.59194556,2.671428 2.9560966,0.67623515 5.9062176,0.58512415 z"
     id="path1329-6"
     inkscape:connector-curvature="0" /></svg>

<svg width="18" height="18" viewBox="0 0 18 18" fill="none" xmlns="http://www.w3.org/2000/svg">
<g clip-path="url(#clip0)">
<g opacity="0.849">
<path opacity="0.849" d="M5.89792 0.521114C2.9259 0.612901 0.533464 2.63989 0.535249 5.6067L0.539109 12.0236C0.542637 17.8887 5.91492 17.4739 6.04868 17.4739H12.5076C15.4447 17.4739 17.4746 15.8149 17.4647 11.9721L17.4483 5.6067C17.4389 1.94823 14.6441 0.663233 12.0709 0.522945C12.0709 0.522945 5.8936 0.517048 5.89792 0.521114V0.521114Z" fill="#0086C7"/>
</g>
<path opacity="0.949" d="M5.68747 -0.0398846C2.52419 0.0578094 -0.00192845 2.20863 -2.94476e-05 5.36637V12.2101C0.00377055 18.4526 5.70136 18.0226 5.84372 18.0226H12.7187C15.8448 18.0226 18.0105 16.2378 18 12.1476V5.36637C17.99 1.47246 15.02 0.109431 12.2812 -0.0398846C12.2812 -0.0398846 5.68286 -0.0442146 5.68747 -0.0398846V-0.0398846ZM5.90622 0.585115C5.90192 0.581085 12.0625 0.585115 12.0625 0.585115C14.6167 0.724369 17.3657 1.98486 17.375 5.61637L17.4062 11.9289C17.416 15.7434 15.3841 17.3976 12.4687 17.3976H6.06247C5.9297 17.3976 0.597221 17.8132 0.593721 11.9914V5.61637C0.591949 2.67142 2.9561 0.676226 5.90622 0.585115Z" fill="#5FB7ED"/>
</g>
<defs>
<clipPath id="clip0">
<path d="M0 0H18V18H0V0Z" fill="white"/>
</clipPath>
</defs>
</svg>
